X: 041391
T: Denis Ryan's
S: "Fiddlecase" (#35)
L: 1/8
M: 4/4
R: reel
K: Ddor
zC|A,D D2 DEFG|Ad d2 cAGE|C3E DECA,|G,A,CE DCA,G,|
CDEC DEFG|Ad d2 cAGE|CDEG cAGE|DFEC D2 :|
FG|Ad d2 edcA|d2 ed cAGE|GEGA cgec|dcde c2 AG|
Ad d2 edcA|d2 ed cAGE|CDEG cAGE|DFEC D2 :|
